icons/google-optimize.svg

<?xml version="1.0" encoding="UTF-8"?>
<svg width="256px" height="264px" viewBox="0 0 256 264" version="1.1" xmlns="http://www.w3.org/2000/svg" xmlns:xlink="http://www.w3.org/1999/xlink" preserveAspectRatio="xMidYMid">
    <g>
        <path d="M168.200356,131.116813 C167.739978,111.166802 151.31154,95.3020846 131.357615,95.5382839 L36.3611364,95.5382839 L36.3611364,166.695342 L97.8861056,166.695342 L97.8861056,226.534696 C97.3613458,235.999903 100.707721,245.271644 107.15648,252.219955 C113.605239,259.168265 122.602019,263.195839 132.080022,263.377437 C141.755677,263.282112 150.997121,259.346809 157.771099,252.437351 C164.545078,245.527893 168.296629,236.210342 168.200356,226.534696 L168.200356,131.116813 L168.200356,131.116813 Z" fill="#B366F6"></path>
        <circle fill="#8430CE" cx="35.9397325" cy="131.538217" r="35.9397325"></circle>
        <path d="M255.912568,35.7591308 C255.714483,15.9516231 239.600732,0 219.792233,0 L122.628535,0 C104.169577,1.85285115 90.1157159,17.3880169 90.1157159,35.9397325 C90.1157159,54.4914481 104.169577,70.0266139 122.628535,71.879465 L184.87591,71.879465 L184.87591,131.658618 C184.338798,144.707798 190.994367,157.002309 202.214253,163.6869 C213.434139,170.37149 227.41454,170.37149 238.634425,163.6869 C249.854311,157.002309 256.509881,144.707798 255.972768,131.658618 L255.912568,35.7591308 Z" fill="#C58AF8"></path>
    </g>
</svg>

<svg xmlns="http://www.w3.org/2000/svg" viewBox="0 0 256.003 263.377">
  <path fill="#b366f6" d="M168.2 131.117c-.46-19.95-16.888-35.815-36.842-35.579H36.36v71.157h61.525v59.84a34.916 34.916 0 0 0 34.194 36.842 36.481 36.481 0 0 0 36.12-36.842z"/>
  <circle cx="35.94" cy="131.538" r="35.94" fill="#8430ce"/>
  <path fill="#c58af8" d="M255.913 35.76C255.714 15.951 239.6 0 219.793 0h-97.164c-18.46 1.853-32.513 17.388-32.513 35.94 0 18.551 14.054 34.087 32.513 35.94h62.247v59.779a35.579 35.579 0 1 0 71.097 0z"/>
</svg>
